%
(Header)
(Generated by gcodetools from Inkscape.)
(Using default header. To add your own header create file "header" in the output dir.)
M3
(Header end.)
G21 (All units in mm)

(Start cutting path id: path14828)
(Change tool to Default tool)

G00 Z5.000000
G00 X20.176785 Y35.532284

G01 Z-0.125000 F100.0(Penetrate)
G01 X16.717907 Y27.173330 Z-0.125000 F400.000000
G01 X20.176785 Y17.949657 Z-0.125000
G01 X12.394311 Y24.002692 Z-0.125000
G01 X3.747117 Y23.282093 Z-0.125000
G01 X10.376632 Y17.661417 Z-0.125000
G01 X20.176785 Y17.949657 Z-0.125000
G01 X11.817831 Y11.752501 Z-0.125000
G01 X9.944272 Y3.681789 Z-0.125000
G01 X17.438507 Y8.293625 Z-0.125000
G01 X20.176785 Y17.949657 Z-0.125000
G01 X22.770942 Y8.581864 Z-0.125000
G01 X30.409296 Y3.537668 Z-0.125000
G01 X27.526899 Y13.481940 Z-0.125000
G01 X20.176785 Y17.949657 Z-0.125000
G01 X29.688696 Y17.517297 Z-0.125000
G01 X36.894692 Y23.282093 Z-0.125000
G01 X26.950420 Y23.714452 Z-0.125000
G01 X20.176785 Y17.949657 Z-0.125000
G01 X23.491542 Y27.461569 Z-0.125000
G01 X20.176785 Y35.532284 Z-0.125000
G00 Z5.000000

(End cutting path id: path14828)


(Footer)
M5
G00 X0.0000 Y0.0000
M2
(Using default footer. To add your own footer create file "footer" in the output dir.)
(end)
%