%
(Header)
(Generated by gcodetools from Inkscape.)
(Using default header. To add your own header create file "header" in the output dir.)
M3
(Header end.)
G21 (All units in mm)

(Start cutting path id: path2392)
(Change tool to Default tool)

G00 Z5.000000
G00 X14.124775 Y8.285883

G01 Z-0.125000 F100.0(Penetrate)
G01 X7.888554 Y15.748029 Z-0.125000 F400.000000
G00 Z5.000000

(End cutting path id: path2392)


(Start cutting path id: path2390)
(Change tool to Default tool)

G00 Z5.000000
G00 X22.119931 Y9.245302

G01 Z-0.125000 F100.0(Penetrate)
G01 X16.043613 Y21.397938 Z-0.125000 F400.000000
G00 Z5.000000

(End cutting path id: path2390)


(Start cutting path id: path2382)
(Change tool to Default tool)

G00 Z5.000000
G00 X18.868568 Y28.113869

G01 Z-0.125000 F100.0(Penetrate)
G01 X12.898852 Y24.489398 Z-0.125000 F400.000000
G00 Z5.000000

(End cutting path id: path2382)


(Start cutting path id: path2267)
(Change tool to Default tool)

G00 Z5.000000
G00 X12.952152 Y32.644457

G01 Z-0.125000 F100.0(Penetrate)
G01 X12.898852 Y24.489398 Z-0.125000 F400.000000
G01 X16.043613 Y21.397938 Z-0.125000
G01 X7.888554 Y15.748029 Z-0.125000
G01 X8.794672 Y8.232583 Z-0.125000
G01 X16.203516 Y5.301026 Z-0.125000
G01 X14.124775 Y8.285883 Z-0.125000
G01 X22.119931 Y9.245302 Z-0.125000
G01 X27.130227 Y20.172015 Z-0.125000
G01 X31.554214 Y24.596001 Z-0.125000
G01 X32.460333 Y32.377952 Z-0.125000
G01 X25.424595 Y28.113869 Z-0.125000
G01 X18.868568 Y28.113869 Z-0.125000
G01 X12.952152 Y32.644457 Z-0.125000
G00 Z5.000000

(End cutting path id: path2267)


(Start cutting path id: path2384)
(Change tool to Default tool)

G00 Z5.000000
G00 X25.424595 Y28.113869

G01 Z-0.125000 F100.0(Penetrate)
G01 X31.554213 Y24.596001 Z-0.125000 F400.000000
G00 Z5.000000

(End cutting path id: path2384)


(Start cutting path id: path2386)
(Change tool to Default tool)

G00 Z5.000000
G00 X27.130226 Y20.172015

G01 Z-0.125000 F100.0(Penetrate)
G01 X22.226532 Y17.826769 Z-0.125000 F400.000000
G01 X16.043613 Y21.397938 Z-0.125000
G00 Z5.000000

(End cutting path id: path2386)


(Start cutting path id: path2388)
(Change tool to Default tool)

G00 Z5.000000
G00 X22.119931 Y9.245302

G01 Z-0.125000 F100.0(Penetrate)
G01 X22.226532 Y17.826769 Z-0.125000 F400.000000
G00 Z5.000000

(End cutting path id: path2388)


(Footer)
M5
G00 X0.0000 Y0.0000
M2
(Using default footer. To add your own footer create file "footer" in the output dir.)
(end)
%