%
(Header)
(Generated by gcodetools from Inkscape.)
(Using default header. To add your own header create file "header" in the output dir.)
M3
(Header end.)
G21 (All units in mm)

(Start cutting path id: path3255)
(Change tool to Default tool)

G00 Z5.000000
G00 X12.301342 Y27.843500

G01 Z-0.125000 F100.0(Penetrate)
G01 X37.229843 Y27.513316 Z-0.125000 F400.000000
G00 Z5.000000

(End cutting path id: path3255)


(Start cutting path id: path3253)
(Change tool to Default tool)

G00 Z5.000000
G00 X2.973790 Y36.097971

G01 Z-0.125000 F100.0(Penetrate)
G01 X12.301342 Y27.843500 Z-0.125000 F400.000000
G01 X12.053708 Y3.822991 Z-0.125000
G00 Z5.000000

(End cutting path id: path3253)


(Start cutting path id: path3251)
(Change tool to Default tool)

G00 Z5.000000
G00 X2.973790 Y36.097971

G01 Z-0.125000 F100.0(Penetrate)
G01 X2.973790 Y13.150543 Z-0.125000 F400.000000
G01 X12.053708 Y3.822991 Z-0.125000
G01 X36.982209 Y3.740441 Z-0.125000
G01 X37.229843 Y27.513316 Z-0.125000
G01 X26.911755 Y36.180511 Z-0.125000
G01 X2.973790 Y36.097971 Z-0.125000
G00 Z5.000000

(End cutting path id: path3251)


(Footer)
M5
G00 X0.0000 Y0.0000
M2
(Using default footer. To add your own footer create file "footer" in the output dir.)
(end)
%